X:160
T: WENN MEIN PFEIFCHEN DAMPFT UND GLUEHT
N: B0648
O: Europa, Mitteleuropa, Deutschland
R: Moral -, Lob - Lied auf den Tabak
M: 3/4
L: 1/16
K: G
 | D6B2G2G2 | c2c2A4z4 |
D6B2A2G2 | F2A2d4z4 |
B6B2B2B2 | dcBcA4z4 |
d2d2e3ccAAF | A4G4z4 |
F2A2d6c2 | B2ABG4z4 |
F2A2d6c2 | B2A2G4z4 |
D6B2B2B2 | dcBcA4z4 |
d3de3ccAAF | A4G4z4

@@@ Tune index: 2378
